X:540
%%topmargin 3cm
T:Garthland House
C:R. Macintosh
O:Scotland
B:Keith Norman MacDonald : "The Skye collection of the best reels & strathspeys extant" : 1887
Z:Ralph Palmer
R:Strathspey
M:C
L:1/8
K:Bb
D/E/ | F>GF<D B,D/E/ FD | F>GF<D G/F/E/D/ CD/E/ | F>GF<D F>G B>c | dB e/d/c/B/ FBB :| g | fB e/d/c/B/ F>BD>B | fB e/d/c/B/ gccg |
fB e/d/c/B/ Fd | F>GB>c dBB |]
